icons/arcgis-data-store-16.svg

<?xml version="1.0" encoding="UTF-8"?><svg id="icons" xmlns="http://www.w3.org/2000/svg" viewBox="0 0 16 16"><defs><style>.cls-1{fill:none;}.cls-1,.cls-2{stroke-width:0px;}</style></defs><rect class="cls-1" width="16" height="16"/><path class="cls-2" d="M14,12c-1.10254,0-2,.89746-2,2s.89746,2,2,2,2-.89746,2-2-.89746-2-2-2ZM15,14.74994c0,.13806-.11194.25-.25.25h-1.5c-.13806,0-.25-.11194-.25-.25v-1.5c0-.13806.11194-.25.25-.25h1.5c.13806,0,.25.11194.25.25v1.5ZM10,11h4v-4h-4v4ZM11,8h2v2h-2v-2ZM6.7793,16h5.44141l-2.7207-4.1875-2.7207,4.1875ZM8.62109,15l.87891-1.35156.87891,1.35156h-1.75781ZM8,12c-.51514.05115-.86975.07196-1.5.07196-3.83887,0-5.5-1.08563-5.5-1.59247v-3.57306c1.10126.67175,3.04523,1.07306,5.5,1.07306.90942,0,1.74768-.05566,2.5-.15918v-.93982c-.70129.11139-1.52753.1825-2.5.1825-3.83887,0-5.5-1.07666-5.5-1.5835v-1.57306c1.10126.67175,3.04523,1.09357,5.5,1.09357s4.39874-.42181,5.5-1.09357v1.57306c0,.14099-.14343.32672-.41174.52051h1.41174v-3.52051c0-1.49512-2.6123-2.47949-6.5-2.47949S0,.98438,0,2.47949v8c0,1.49512,2.6123,2.5,6.5,2.5.36926,0,.52704-.01184.87213-.02954l.62787-.94995ZM6.5.92548c3.83887,0,5.5,1.04718,5.5,1.55402s-1.66113,1.5835-5.5,1.5835S1,2.98633,1,2.47949,2.66113.92548,6.5.92548Z"/></svg>

<svg xmlns="http://www.w3.org/2000/svg" viewBox="0 0 16 16"><path stroke-width="0" fill="none" d="M0 0h16v16H0z"/><path d="M14 12c-1.103 0-2 .897-2 2s.897 2 2 2 2-.897 2-2-.897-2-2-2zm1 2.75a.25.25 0 0 1-.25.25h-1.5a.25.25 0 0 1-.25-.25v-1.5a.25.25 0 0 1 .25-.25h1.5a.25.25 0 0 1 .25.25v1.5zM10 11h4V7h-4v4zm1-3h2v2h-2V8zm-4.22 8h5.44L9.5 11.812 6.78 16zm1.841-1l.879-1.352.879 1.352H8.62zM8 12c-.515.051-.87.072-1.5.072-3.839 0-5.5-1.086-5.5-1.593V6.906c1.101.672 3.045 1.073 5.5 1.073.91 0 1.748-.055 2.5-.159v-.94c-.701.112-1.528.183-2.5.183-3.839 0-5.5-1.077-5.5-1.584V3.906C2.101 4.578 4.045 5 6.5 5s4.399-.422 5.5-1.094V5.48c0 .141-.143.327-.412.521H13V2.48C13 .983 10.388 0 6.5 0S0 .984 0 2.48v8c0 1.495 2.612 2.5 6.5 2.5.37 0 .527-.012.872-.03L8 12zM6.5.925c3.839 0 5.5 1.048 5.5 1.555s-1.661 1.583-5.5 1.583S1 2.986 1 2.479 2.661.925 6.5.925z" stroke-width="0"/></svg>
